X: 26017
T: Mazurka Dans Les Petites Fleurs
R: mazurka
M: 3/4
K: Amajor
c>B A>c B>A|G2 A>(F F2)|E2 F>(A A)>B|c6|
d>c B>d e2|f2 d2 c2|B2 A2 G2|1 F2 A2 B2:|2 F6||
|:a>(f f)>(e e2)|z2 d>(c c)>B|A2 F>(A A)>B|c6|
d2 c>(d d)>e|f2 g2 a2|a2 g>(a a)>b|g6:|

